X:1
T:G minor Daniel Read, 1807
T:Isaac Watts, 1709 (Hymn 61, Book 2) 86. 86. (C. M.)
T:Dryden
T:No copyright. Transcribed from The Columbian Harmonist , 1807. Alto by B. C. Johnston, 2014.
T:No Copyright.  Transcribed from The Columbian Harmonist, 1807. Alto by B. Johnston, 2014.
T:No Copyright.  Transcribed from The Columbian Harmonist, 1807. Alto by B. Johnston, 2014.
Z:No Copyright.  Transcribed from The Columbian Harmonist, 1807.
Z:Alto by B. Johnston, 2014.
%%score [ 1 2 3 4 ]
L:1/8
M:4/4
K:Bb
V:1 treble nm="Treble" snm="Tr."
V:2 treble nm="Alto" snm="A."
V:3 treble-8 nm="Tenor" snm="T."
V:4 bass nm="Bass" snm="B."
V:1
 G4 | (B3 A G2) A2 | B6 c2 | (B2 A2) (G2 ^F2) | G6 e2 | d4 d4 | (d2 c2) B4 | A6 B2 | %8
w: 1.~My|soul, * * come|med- i-|tate * the *|day, And|think how|near * it|stands, When|
w: 2.~And|you, * * mine|eyes, look|down * and *|view The|hol- low,|ga- * ping|tomb; This|
 (B2 A2) (G2 A2) | B6 B2 | (B2 A2) G4 | ^F6 A2 | (G2 B2) (A2 G2) | c6 c2 | d6 B2 | (BAGA B2) A2 | %16
w: you * must *|quit this|house * of|clay, and|fly * to *|un- known|lands, And|fly~ * * * * to|
w: gloo- * my *|pri- son|waits * for|you, When-|e'er * the *|sum- mons|come, When-|e'er~ * * * * the|
 (G2 ^F4) G2 | G6 |] %18
w: un- * known|lands.|
w: sum- * mons|come.|
V:2
 G4 | (G3 ^F G2) A2 | G6 G2 | D4 D4 | G6 E2 | (D3 C) (D2 G2) | D4 D4 | A6 G2 | (G2 A2) G4 | G6 G2 | %10
w: 3.~O|could * * we|die with|those that|die, And|place * us *|in their|stead, Then|would * our|spi- rits|
w: 4.~Then|should * * we|see the|saints a-|bove In|their * own *|glo- rious|forms; And|won- * der|why our|
 (B2 A2) G4 | ^F6 F2 | G4 G4 | (c2 B2 A2) A2 | B6 B2 | B6 A2 | (G2 ^F4) G2 | G6 |] %18
w: learn * to|fly, And|con- verse|with * * the|dead, And|con- verse|with * the|dead.|
w: souls * should|love To|dwell with|mor- * * tal|worms, To|dwell with|mor- * tal|worms.|
V:3
 G4 | (d3 c) B2 c2 | d6 e2 | (d2 c2) (B2 A2) | G6 c2 | B4 (A2 G2) | A4 (B3 c) | d6 d2 | %8
w: 5.~How|we~ * * should|scorn these|clothes * of *|flesh, These|fet- ters, *|and this *|load! And|
w: 6.~We|should * * al-|most for-|sake * our *|clay Be-|fore the *|sum- mons *|come, And|
 (d2 c2) (B2 c2) | d6 d2 | (d2 c2) (f2 e2) | d6 c2 | (B2 d2) (c2 B2) | A6 B2 | B6 d2 | %15
w: long * for *|eve- ning,|to * un- *|dress, That|we * may *|rest with|God, That|
w: pray * and *|wish our|souls * a- *|way To|their * e- *|ter- nal|home, To|
 (dcBc d2) c2 | (B2 A4) G2 | G6 |] %18
w: we~ * * * * may|rest * with|God.|
w: their~ * * * * e-|ter- * nal|home.|
V:4
 G,4 | (G,3 A, B,2) A,2 | G,6 C,2 | D,4 D,4 | G,,6 A,,2 | (B,,3 C,) D,4 | D,4 G,4 | D,6 G,2 | %8
 G,4 G,4 | G,6 G,2 | ([G,,G,]2 [A,,A,]2) ([B,,B,]2 [C,C]2) | [D,D]6 ^F,2 | G,4 C,4 | F,6 F,2 | %14
 B,,6 B,,2 | D,6 F,2 | (G,2 C,2) D,4 | G,,6 |] %18

